X: 41205
T: Troll's Polska
R: mazurka
M: 3/4
K: Dminor
"Dm"D2DE F>G|A2A^c d>e|"Bb"f2 fe d>d|"F"c>d cA F>A|
"Gm"B2BA G>B|"Dm"A>B AG F2|"A7"E>F ED ^C>E|"Dm"D2D4:|
|:"Dm"a>g fe f>a|"C"g>a ge c2|"Bb"f>e d^c d>f|"A7"e>f e^c A2|
"Bb"d>c BA B>d|"F"c>d cB F2|"A7"E>F ED ^C>E|"Dm"D2D4:|

